<?xml version="1.0" encoding="UTF-8"?>
<map version="1.10" tiledversion="1.10.2" orientation="orthogonal" renderorder="right-down" width="30" height="20" tilewidth="16" tileheight="16" infinite="0" nextlayerid="4" nextobjectid="1">
 <tileset firstgid="1" source="tiles.tsx"/>
 <layer id="1" name="floor" width="30" height="20">
  <data encoding="csv">
226,195,195,195,195,195,195,228,0,0,0,0,0,0,0,0,0,0,0,0,0,0,0,0,226,195,195,195,195,228,
257,193,193,193,193,193,193,257,0,0,0,0,0,0,0,0,0,0,0,0,0,0,0,0,257,193,193,193,193,257,
257,193,193,193,193,193,193,258,195,195,195,195,195,195,195,195,195,195,195,195,195,195,195,195,260,193,193,193,193,257,
257,193,193,193,193,193,193,354,193,193,193,193,193,193,193,193,193,193,193,193,193,193,193,193,354,193,193,193,193,257,
257,193,193,193,193,193,193,258,195,195,195,195,195,195,195,228,193,226,195,195,195,195,195,195,260,193,193,193,193,257,
257,193,193,193,193,193,193,257,0,0,0,0,0,0,0,257,193,257,0,0,0,0,0,0,257,193,193,193,193,257,
257,193,193,193,193,193,193,290,228,0,0,0,0,0,0,257,193,257,0,0,0,0,0,0,257,193,193,193,193,257,
257,193,193,193,193,193,193,193,257,0,0,0,0,0,226,291,354,291,195,228,0,0,0,0,257,193,193,193,193,257,
257,193,193,193,193,193,193,193,257,0,0,0,226,195,292,193,193,193,193,290,195,228,0,0,257,193,193,193,193,257,
257,193,193,193,193,193,193,193,257,0,0,226,292,193,193,193,193,193,193,193,193,257,0,0,257,193,193,193,193,257,
257,193,193,193,193,226,354,227,292,0,226,292,193,193,193,193,193,193,193,193,193,290,228,0,257,193,193,193,193,257,
290,227,354,227,195,260,193,257,0,0,257,193,193,193,193,193,193,193,193,193,193,193,257,0,257,193,193,193,193,257,
0,257,193,257,226,291,354,291,195,228,257,193,193,193,193,193,193,193,193,193,193,193,290,228,258,195,354,195,195,260,
0,257,193,257,257,193,193,193,193,257,257,193,193,193,193,193,193,193,193,193,193,193,193,257,257,193,193,193,193,257,
0,257,193,257,257,193,193,193,193,257,257,193,193,193,193,193,193,193,193,193,193,193,193,257,257,193,193,193,193,257,
0,257,193,257,257,193,193,193,193,257,257,193,193,193,193,193,193,193,193,193,193,193,226,292,257,193,193,193,193,257,
226,291,354,260,257,193,193,193,193,257,290,228,193,193,193,193,193,193,193,193,193,193,257,0,257,193,193,193,193,257,
257,193,193,257,257,193,193,193,193,257,0,257,193,193,193,193,193,193,193,193,193,226,292,0,257,193,193,193,193,257,
257,193,193,257,257,193,193,193,193,257,0,290,195,228,193,193,193,193,193,193,226,292,0,0,257,193,193,193,193,257,
290,195,195,292,290,195,195,195,195,292,0,0,0,290,195,195,195,195,195,195,292,0,0,0,290,195,354,195,195,292
</data>
 </layer>
 <layer id="2" name="objects" width="30" height="20">
  <data encoding="csv">
0,0,0,0,0,0,0,0,0,0,0,0,0,0,0,0,0,0,0,0,0,0,0,0,0,0,0,0,0,0,
0,0,0,0,0,0,0,0,0,0,0,0,0,0,0,0,0,0,0,0,0,0,0,0,0,0,0,0,0,0,
0,0,0,0,0,0,0,0,0,0,0,0,0,0,0,0,0,0,0,0,0,0,0,0,0,0,0,0,0,0,
0,0,0,0,0,0,0,0,0,0,0,0,0,0,0,0,0,0,0,0,0,0,0,0,0,0,0,0,0,0,
0,0,0,0,0,0,0,0,0,0,0,0,0,0,0,0,0,0,0,0,0,0,0,0,0,0,0,0,0,0,
0,0,0,0,0,0,0,0,0,0,0,0,0,0,0,0,0,0,0,0,0,0,0,0,0,0,0,0,0,0,
0,0,0,0,0,0,0,0,0,0,0,0,0,0,0,0,0,0,0,0,0,0,0,0,0,0,0,0,0,0,
0,0,0,0,0,0,0,0,0,0,0,0,0,0,0,0,0,0,0,0,0,0,0,0,0,0,0,0,0,0,
0,0,0,0,0,0,0,0,0,0,0,0,0,0,0,0,0,0,0,0,0,0,0,0,0,0,0,0,0,0,
0,0,0,0,0,0,0,0,0,0,0,0,0,0,0,0,0,0,0,0,0,0,0,0,0,0,0,0,0,0,
0,0,0,0,0,0,0,0,0,0,0,0,0,0,0,0,0,0,0,0,0,0,0,0,0,0,0,0,0,0,
0,0,0,0,0,0,0,0,0,0,0,0,0,0,0,0,0,0,0,0,0,0,0,0,0,0,0,0,0,0,
0,0,0,0,0,0,0,0,0,0,0,0,0,0,0,0,0,0,0,0,0,0,0,0,0,0,0,0,0,0,
0,0,0,0,0,0,0,0,0,0,0,0,0,0,0,0,0,0,0,0,0,0,0,0,0,0,0,0,0,0,
0,0,0,0,0,0,0,0,0,0,0,0,0,0,0,0,0,0,0,0,0,0,0,0,0,0,0,0,0,0,
0,0,0,0,0,0,0,0,0,0,0,0,0,0,0,0,0,0,0,0,0,0,0,0,0,0,0,0,0,0,
0,0,0,0,0,0,0,0,0,0,0,0,0,0,0,0,0,0,0,0,0,0,0,0,0,0,0,0,0,0,
0,0,0,0,0,0,0,0,0,0,0,0,0,0,0,0,0,0,0,0,0,0,0,0,0,0,0,0,0,0,
0,0,0,0,0,0,0,0,0,0,0,0,0,0,0,0,0,0,0,0,0,0,0,0,0,0,0,0,0,0,
0,0,0,0,0,0,0,0,0,0,0,0,0,0,0,0,0,0,0,0,0,0,0,0,0,0,0,0,0,0
</data>
 </layer>
</map>
